assets/img/logo.svg

<svg width="828" height="114" viewBox="0 0 828 114" fill="none" xmlns="http://www.w3.org/2000/svg">
<g clip-path="url(#clip0_1056_353)">
<path d="M99.3987 0H25.727L14.8088 19.0447L51.5749 82.4561L58.8629 69.7904L29.7293 19.2851L32.8847 13.0169L92.3526 12.7766L99.3987 0Z" fill="url(#paint0_linear_1056_353)"/>
<path d="M47.5539 25.1741L55.1492 37.9322H77.4043L85.0553 25.1741C85.0553 25.1741 47.4423 25.0632 47.5446 25.1741H47.5539Z" fill="url(#paint1_linear_1056_353)"/>
<path d="M110.68 6.61942L118.675 19.0077L63.1817 114H40.787L0 43.8952L7.70691 31.2388L47.8238 100.391H55.6424L110.68 6.61942Z" fill="url(#paint2_linear_1056_353)"/>
<path d="M77.3017 113.63L125.377 31.1741L133 44.1541L92.427 113.63C92.427 113.63 77.1156 113.63 77.3017 113.63Z" fill="url(#paint3_linear_1056_353)"/>
</g>
<path d="M204.685 96L174.061 9.57999H188.793L213.849 83.356H210.949L235.889 9.57999H250.621L219.997 96H204.685ZM259.511 96V33.244H272.619V96H259.511ZM259.511 24.66V9.57999H272.619V24.66H259.511ZM287.945 96V33.244H300.473V45.888L299.313 44.032C300.705 39.9333 302.948 36.9947 306.041 35.216C309.134 33.36 312.846 32.432 317.177 32.432H321.005V44.38H315.553C311.222 44.38 307.704 45.7333 304.997 48.44C302.368 51.0693 301.053 54.8587 301.053 59.808V96H287.945ZM348.764 97.392C344.511 97.392 340.76 96.6573 337.512 95.188C334.342 93.6413 331.867 91.5533 330.088 88.924C328.31 86.2173 327.42 83.0467 327.42 79.412C327.42 76.0093 328.155 72.9547 329.624 70.248C331.171 67.5413 333.53 65.26 336.7 63.404C339.871 61.548 343.854 60.2333 348.648 59.46L370.456 55.864V66.188L351.2 69.552C347.72 70.1707 345.168 71.292 343.544 72.916C341.92 74.4627 341.108 76.4733 341.108 78.948C341.108 81.3453 341.998 83.3173 343.776 84.864C345.632 86.3333 347.991 87.068 350.852 87.068C354.41 87.068 357.503 86.2947 360.132 84.748C362.839 83.2013 364.927 81.152 366.396 78.6C367.866 75.9707 368.6 73.0707 368.6 69.9V53.776C368.6 50.6827 367.44 48.1693 365.12 46.236C362.878 44.2253 359.862 43.22 356.072 43.22C352.592 43.22 349.538 44.148 346.908 46.004C344.356 47.7827 342.462 50.1027 341.224 52.964L330.32 47.512C331.48 44.4187 333.375 41.712 336.004 39.392C338.634 36.9947 341.688 35.1387 345.168 33.824C348.726 32.5093 352.476 31.852 356.42 31.852C361.37 31.852 365.739 32.78 369.528 34.636C373.395 36.492 376.372 39.0827 378.46 42.408C380.626 45.656 381.708 49.4453 381.708 53.776V96H369.18V84.632L371.848 84.98C370.379 87.532 368.484 89.736 366.164 91.592C363.922 93.448 361.331 94.8787 358.392 95.884C355.531 96.8893 352.322 97.392 348.764 97.392ZM397.035 96V8.188H410.143V96H397.035ZM447.022 96V9.57999H503.282V21.76H460.71V47.744H498.642V59.924H460.71V96H447.022ZM534.743 97.392C530.026 97.392 525.889 96.348 522.331 94.26C518.774 92.0947 515.99 89.1173 513.979 85.328C512.046 81.4613 511.079 77.0147 511.079 71.988V33.244H524.187V70.828C524.187 73.6893 524.767 76.2027 525.927 78.368C527.087 80.5333 528.711 82.2347 530.799 83.472C532.887 84.632 535.285 85.212 537.991 85.212C540.775 85.212 543.211 84.5933 545.299 83.356C547.387 82.1187 549.011 80.3787 550.171 78.136C551.409 75.8933 552.027 73.264 552.027 70.248V33.244H565.019V96H552.607V83.704L553.999 85.328C552.53 89.1947 550.094 92.172 546.691 94.26C543.289 96.348 539.306 97.392 534.743 97.392ZM603.524 97.392C597.105 97.392 591.46 95.8067 586.588 92.636C581.793 89.4653 578.429 85.212 576.496 79.876L586.588 75.12C588.289 78.6773 590.609 81.5 593.548 83.588C596.564 85.676 599.889 86.72 603.524 86.72C606.617 86.72 609.131 86.024 611.064 84.632C612.997 83.24 613.964 81.3453 613.964 78.948C613.964 77.4013 613.539 76.164 612.688 75.236C611.837 74.2307 610.755 73.4187 609.44 72.8C608.203 72.1813 606.927 71.7173 605.612 71.408L595.752 68.624C590.339 67.0773 586.279 64.7573 583.572 61.664C580.943 58.4933 579.628 54.82 579.628 50.644C579.628 46.8547 580.595 43.568 582.528 40.784C584.461 37.9227 587.129 35.7187 590.532 34.172C593.935 32.6253 597.763 31.852 602.016 31.852C607.739 31.852 612.843 33.2827 617.328 36.144C621.813 38.928 624.984 42.8333 626.84 47.86L616.748 52.616C615.511 49.6 613.539 47.2027 610.832 45.424C608.203 43.6453 605.225 42.756 601.9 42.756C599.039 42.756 596.757 43.452 595.056 44.844C593.355 46.1587 592.504 47.8987 592.504 50.064C592.504 51.5333 592.891 52.7707 593.664 53.776C594.437 54.704 595.443 55.4773 596.68 56.096C597.917 56.6373 599.193 57.1013 600.508 57.488L610.716 60.504C615.897 61.9733 619.88 64.2933 622.664 67.464C625.448 70.5573 626.84 74.2693 626.84 78.6C626.84 82.312 625.835 85.5987 623.824 88.46C621.891 91.244 619.184 93.448 615.704 95.072C612.224 96.6187 608.164 97.392 603.524 97.392ZM639.683 96V33.244H652.791V96H639.683ZM639.683 24.66V9.57999H652.791V24.66H639.683ZM698.393 97.392C692.361 97.392 686.832 95.9613 681.805 93.1C676.856 90.2387 672.912 86.3333 669.973 81.384C667.034 76.4347 665.565 70.828 665.565 64.564C665.565 58.2227 667.034 52.616 669.973 47.744C672.912 42.7947 676.856 38.928 681.805 36.144C686.754 33.2827 692.284 31.852 698.393 31.852C704.58 31.852 710.109 33.2827 714.981 36.144C719.93 38.928 723.836 42.7947 726.697 47.744C729.636 52.616 731.105 58.2227 731.105 64.564C731.105 70.9053 729.636 76.5507 726.697 81.5C723.758 86.4493 719.814 90.3547 714.865 93.216C709.916 96 704.425 97.392 698.393 97.392ZM698.393 85.212C702.105 85.212 705.392 84.3227 708.253 82.544C711.114 80.7653 713.357 78.3293 714.981 75.236C716.682 72.0653 717.533 68.508 717.533 64.564C717.533 60.62 716.682 57.1013 714.981 54.008C713.357 50.9147 711.114 48.4787 708.253 46.7C705.392 44.9213 702.105 44.032 698.393 44.032C694.758 44.032 691.472 44.9213 688.533 46.7C685.672 48.4787 683.39 50.9147 681.689 54.008C680.065 57.1013 679.253 60.62 679.253 64.564C679.253 68.508 680.065 72.0653 681.689 75.236C683.39 78.3293 685.672 80.7653 688.533 82.544C691.472 84.3227 694.758 85.212 698.393 85.212ZM743.902 96V33.244H756.43V45.54L754.922 43.916C756.469 39.972 758.943 36.9947 762.346 34.984C765.749 32.896 769.693 31.852 774.178 31.852C778.818 31.852 782.917 32.8573 786.474 34.868C790.031 36.8787 792.815 39.6627 794.826 43.22C796.837 46.7773 797.842 50.876 797.842 55.516V96H784.85V58.996C784.85 55.8253 784.27 53.1573 783.11 50.992C781.95 48.7493 780.287 47.048 778.122 45.888C776.034 44.6507 773.637 44.032 770.93 44.032C768.223 44.032 765.787 44.6507 763.622 45.888C761.534 47.048 759.91 48.7493 758.75 50.992C757.59 53.2347 757.01 55.9027 757.01 58.996V96H743.902Z" fill="url(#paint4_linear_1056_353)"/>
<defs>
<linearGradient id="paint0_linear_1056_353" x1="57.1038" y1="0" x2="57.1038" y2="82.4561" gradientUnits="userSpaceOnUse">
<stop stop-color="#1F1F1F"/>
<stop offset="1"/>
</linearGradient>
<linearGradient id="paint1_linear_1056_353" x1="66.2999" y1="25.1248" x2="66.2999" y2="37.9322" gradientUnits="userSpaceOnUse">
<stop stop-color="#1F1F1F"/>
<stop offset="1"/>
</linearGradient>
<linearGradient id="paint2_linear_1056_353" x1="59.3376" y1="6.61942" x2="59.3376" y2="114" gradientUnits="userSpaceOnUse">
<stop stop-color="#1F1F1F"/>
<stop offset="1"/>
</linearGradient>
<linearGradient id="paint3_linear_1056_353" x1="105.15" y1="31.1741" x2="105.15" y2="113.63" gradientUnits="userSpaceOnUse">
<stop stop-color="#1F1F1F"/>
<stop offset="1"/>
</linearGradient>
<linearGradient id="paint4_linear_1056_353" x1="488.5" y1="29" x2="488.5" y2="114" gradientUnits="userSpaceOnUse">
<stop stop-color="#1F1F1F"/>
<stop offset="1"/>
</linearGradient>
<clipPath id="clip0_1056_353">
<rect width="133" height="114" fill="white"/>
</clipPath>
</defs>
</svg>

<?xml version="1.0" encoding="UTF-8"?>
<svg id="Layer_1" xmlns="http://www.w3.org/2000/svg" xmlns:xlink="http://www.w3.org/1999/xlink" version="1.1" viewBox="0 0 133 114">
  <!-- Generator: Adobe Illustrator 30.2.1, SVG Export Plug-In . SVG Version: 2.1.1 Build 1)  -->
  <defs>
    <style>
      .st0 {
        fill: none;
      }

      .st1 {
        fill: url(#linear-gradient2);
      }

      .st2 {
        fill: url(#linear-gradient1);
      }

      .st3 {
        fill: url(#linear-gradient3);
      }

      .st4 {
        fill: url(#linear-gradient);
      }

      .st5 {
        clip-path: url(#clippath);
      }
    </style>
    <clipPath id="clippath">
      <rect class="st0" width="133" height="114"/>
    </clipPath>
    <linearGradient id="linear-gradient" x1="57.1" y1="116" x2="57.1" y2="33.54" gradientTransform="translate(0 116) scale(1 -1)" gradientUnits="userSpaceOnUse">
      <stop offset="0" stop-color="#1f1f1f"/>
      <stop offset="1" stop-color="#000"/>
    </linearGradient>
    <linearGradient id="linear-gradient1" x1="66.3" y1="90.88" x2="66.3" y2="78.07" gradientTransform="translate(0 116) scale(1 -1)" gradientUnits="userSpaceOnUse">
      <stop offset="0" stop-color="#1f1f1f"/>
      <stop offset="1" stop-color="#000"/>
    </linearGradient>
    <linearGradient id="linear-gradient2" x1="59.34" y1="109.38" x2="59.34" y2="2" gradientTransform="translate(0 116) scale(1 -1)" gradientUnits="userSpaceOnUse">
      <stop offset="0" stop-color="#1f1f1f"/>
      <stop offset="1" stop-color="#000"/>
    </linearGradient>
    <linearGradient id="linear-gradient3" x1="105.15" y1="84.83" x2="105.15" y2="2.37" gradientTransform="translate(0 116) scale(1 -1)" gradientUnits="userSpaceOnUse">
      <stop offset="0" stop-color="#1f1f1f"/>
      <stop offset="1" stop-color="#000"/>
    </linearGradient>
  </defs>
  <g class="st5">
    <g>
      <path class="st4" d="M99.4,0H25.73l-10.92,19.04,36.77,63.41,7.29-12.67L29.73,19.29l3.16-6.27,59.47-.24,7.05-12.78Z"/>
      <path class="st2" d="M47.55,25.17l7.6,12.76h22.26l7.65-12.76s-37.61-.11-37.51,0h0Z"/>
      <path class="st1" d="M110.68,6.62l8,12.39-55.49,94.99h-22.39L0,43.9l7.71-12.66,40.12,69.15h7.82L110.68,6.62Z"/>
      <path class="st3" d="M77.3,113.63L125.38,31.17l7.62,12.98-40.57,69.48s-15.31,0-15.13,0Z"/>
    </g>
  </g>
</svg>
